X: 255
T: Marat's Vagary
%%VWML:Prestons1794-3056d-p109-0
F:http://www.vwml.org/record/Prestons1794/3056d/p109
Z: 2014 John Chambers <jc:trillian.mit.edu>
B: Preston "Twenty four Country Dances for the Year 1794" p.108 #1
F: http://www.vwml.org/browse/browse-collections-dance-tune-books/browse-prestons1794# 2014-8-10
N: Note clever solution to the length problem for each strain's last note.
N: Most ABC software gets this wrong: There should be both up and down stems, one with a flag and one without.
M: C|
L: 1/8
K: D
|:\
d>edB AFDF | B>cBA Be2c |\
d>efe dBAB | A>BAF Ad [dd2] :|
|: =c |\
BGBd BGBd | BGBd Be2g |\
fdec dB GE | DEFG Ad [d2d] :|
% - - - - - - - - - - - - - - - - - - - - - - - - -
%%begintext align
%%    Foot it & hands across .|
%%  Foot it and left hands back :|
%% Lead down the middle up again :|.
%%          Allemande :|:
%%endtext
% - - - - - - - - - - - - - - - - - - - - - - - - -
T: the Charms of the Fair
%R: jig
Z: 2014 John Chambers <jc:trillian.mit.edu>
B: Preston "Twenty four Country Dances for the Year 1794" p.108 #2
F: http://www.vwml.org/browse/browse-collections-dance-tune-books/browse-prestons1794# 2014-8-10
M: 6/8
L: 1/8
K: D
|:\
ABA FED | F2G A2A |\
A2B g2f | efd cBA |\
ABA FED | F2G A2A |
Bgf edc | d3 D3 :|\
|:\
f2d afd | e2c aec |\
dcd Bed | cAA A3 |
B2G dBG | A2F dAF |\
[1 GFG EAG | FDD D2 :|\
[2 Bcd efg | fdd d3 |]
% - - - - - - - - - - - - - - - - - - - - - - - - -
%%begintext align
%%     Cast of 1 Cu: & hands 4 at bottom .|
%%        Cast up & hands 4 at top :|
%% Lead down the middle up again & cast off :|.
%%           Right & left at top :|:
%%endtext
% - - - - - - - - - - - - - - - - - - - - - - - - -
